X:1
T:Title
T:Il Mio Bel Foco 
T:Composer
C:Composer
L:1/8
Q:1/4=100
M:3/4
K:C
V:1 treble transpose=-12 nm="Piano" snm="Pno."
V:1
"^\n" A2 cB A2 | A2 cB A2 | B2 dc B2 | cB A2 z2 | A2 cB A2 | A2 cB A2 | B2 dc B2 | cB A2 z2 | %8
 ed cE FG |{FG} FE F4 | dc BD EF |{EF} ED E4 | cB AB cd | e3 d/c/ BA | ^GE D3 E | E3 z ^GA | %16
 BE FE AB | cE FE Bc | d3 ^d e=d | c/B/A e3 ^G | A4 ^GA | B4 AB | c4 Bc | d3 f e^g | %24
 a3/2g/4f/4 ed E^G | A3 z z2 | z6 | z6 | z2 A3 B | ce d3 c | BA G3 A | Bd c3 B | AG ^F3 G | %33
 Ac B3 A | G4 ^F2 | z2 z2 GA | B3 B AB | c4 BA | G^F/E/ B3 ^D | E4 ^DE | ^F4 EF | G4 ^FG | A4 GA | %43
 B3 e ^d^f | e3 d/c/ B/A/G/^F/ | E{/d}c ^D3 E | E4 z2 | z6 | A2 cB A2 | A2 cB A2 | B2 dc B2 | %51
 cB A2 z2 | ed cE FG |{FG} FE F4 | dc BD EF |{EF} ED E4 | cB AB cd | e3 d/c/ BA | ^GE D3 E | %59
 E3 z ^GA | BE FE AB | cE FE Bc | d3 ^d e=d | c/B/A e3 ^G | A4 ^GA | B4 AB | c4 Bc | d3 f e^g | %68
 a>g f/e/d/c/ B/A/G/F/ | E2 cB A2- | A2 cB A2- | Ae fe gf | e2 f3 ^G | A4 z2 |] %74

